X:6244
T:Gigue du Sous-Marin
C:Joseph Allard
M:6/8
L:1/8
K:G
B|BAB G2 D|B,2 E D2 B|BAB d2 B|G2 B A2 B|!
cBc A2 G|F2 G A2 B|cBc fed|cBA B2 B|!
BAB G2 D|B,2 E D2 B|BAB d2 B|G2 B A2 B|!
cBc A2 G|F2 G A2 B|cBc fed|cBA G2:|!
|:B/c/|d2 d e2 d|g3 -gfg|a3 -aga|b3 -bab|!
d'2 B d2 g|gfe d2 g|fed cBA|B3 -BBc|!
d2 d e2 d|g3 -gfg|a3 -aga|b3 -bab|!
d'2 B d2 g|gfe d2 g|fed cBA|G4 -G:|!
